X:14
T:Polska från Dalarna
T:Svenska Folkdansar H2 nr 14
O:Dalarna
B:Traditioner av Svenska Folkdansar Häfte 2, nr 14
R:Polska
Z:Nils L
U:t=tenuto
M:3/8
L:1/16
K:G
G2 | B2BGBc | d2dBed | c2cAdc | B4 ::
Bd | c2c2 Ac | B2B2 GB | A2A2 AG | G4 :|

